X: 119
T: White Cockade, The
N: page 39
N: hexatonic
C: R-1
C: British Isles
M: 2/4
L: 1/8
R: reel
K: G
Q:1/4=60
G/A/|"G"BB BA/G/|dB Bg|dB c/B/A/G/|"D"FA AG/A/|\
"G"BB c/B/A/G/|Bd g>a|bg "C"e/f/g/e/|"G"dB B::
B/c/|"G"dB gB|dB BB/c/|dB gf/g/|"D"aA AG/A/|\
"G"BB c/B/A/G/|Bd g>a|bg "C"e/f/g/e/|"G"dB B:|
